icons/op-no-zen-mode-24.svg

<svg width="24" height="24" viewBox="0 0 24 24" fill="none" xmlns="http://www.w3.org/2000/svg">
<path d="M8.19331 7.53903L4.77323 4L4 4.77323L7.53903 8.19331H4.38662V9.14498H9.14498V4.38662H8.19331V7.53903ZM19.6134 9.14498V8.19331H16.461L20 4.77323L19.2268 4L15.8067 7.53903V4.38662H14.855V9.14498H19.6134ZM19.6134 15.8067V14.855H14.855V19.6134H15.8067V16.461L19.2268 20L20 19.2268L16.461 15.8067H19.6134ZM4.38662 14.855V15.8067H7.53903L4 19.2268L4.77323 20L8.19331 16.461V19.6134H9.14498V14.855H4.38662Z" fill="black"/>
</svg>

<svg xmlns="http://www.w3.org/2000/svg" width="24" height="24" viewBox="0 0 24 24"><path d="M8.193 7.539 4.773 4 4 4.773l3.539 3.42H4.387v.952h4.758V4.387h-.952v3.152Zm11.42 1.606v-.952h-3.152L20 4.773 19.227 4l-3.42 3.539V4.387h-.952v4.758h4.758Zm0 6.662v-.952h-4.758v4.758h.952v-3.152L19.227 20l.773-.773-3.539-3.42h3.152Zm-15.226-.952v.952h3.152L4 19.227l.773.773 3.42-3.539v3.152h.952v-4.758H4.387Z"/></svg>
